X:1
T:John Naughton's Reel
M:C|
L:1/8
K:Dm
"Gm"DGG2Acdc|"Dm"AFF2 AFGF|"Gm"DGG2 Acde|"Bb"fd"Dm"cA "Gm"AGGF|!
"Gm"DGG2Acdc|"Dm"AFF2 AFGF|"Gm"DGG2 Acde|"Bb"fd"Dm"cA "Gm"AGG2:|]!
"Gm"g3 g- gfdc|"Dm"Acdef2df|"Gm"g3 g- gfdc|"Bb"fd"Dm"cA "Gm"AGGf|!
"Gm"g3 g- gfdc|"Dm"Acdef3g|"G"agg2"Gm"gfde|"Bb"fd"Dm"cA "Gm"AGG2:|]!
